X: 2737
T: Banks Of The Allaghaun, The
R: waltz
M: 3/4
K: Dmajor
|:(3FG^G|A2 f2 {g}fe|d3 e dB|A3F EF|D3 E FG|
A2 f2 {g}fe|d2 dc df|e2 ec AB|A2 F2G2|
{G}A2 f2 {g}fe|d2 de dB|A2F2A2|B3 c de|
fe dc de|fe dc dB|Aa fa ef|d4:|
|:c2|B2BG (3Bcd|A2 F2 A2|BA AF EF|D4 dc|
B3G Bd|AF AB df|fe ed ef|e2d2c2|
B3G (3Bcd|A2{c}B2 BA|F2_B2ce|d3c de|
fe dc de|fe dc dB|Aa fa ef|d4:|

